X:31
%%etbk:tnset id:11,pos:2,rep:3x,ant:
%%etbk:wsite http://www.thesession.org/tunes/display/978
%%etbk:skill ?
%%etbk:pldat 2013-10-02T17:12,2013-05-07T19:40,2013-05-01T16:44,2013-04-30T16:30
T: Old Maids Of Galway, The
Z: Piano Box Version by Martin Fleischmann
H: Created 2013-02-19 /  Last Modified 2013-02-19
M: 4/4
L: 1/8
R: reel
K: Emin
|!5!e!3!B !2!B!3!B !5!e!3!B!3!d!3!B|!2!ABGA B!2!A!3!B!4!d|!5!eB BB eBdB|(3ABA GA BABd|
eB BB eBdB|A2 GA BABd|eB BB eBdB|(3ABA GA BGG2||
!3!g!5!b!4!a!3!g !2!e!3!g !1!d!2!e|!3!gbag !2!e!4!a !3!a!4!a|!3!gabg !2!ee!1!d!3!B|!2!A2 GA BGG2|
!3!gbag eg de|gbag ea aa|gabg e2dB|A2 GA BGG2||
